assets/img/icons/basket.svg

<svg width="18" height="21" viewBox="0 0 18 21" version="1.1" xmlns="http://www.w3.org/2000/svg" xmlns:xlink="http://www.w3.org/1999/xlink">
<title></title>
<desc>Created using Figma</desc>
<g id="Canvas" transform="matrix(0.950001 0 0 0.950001 -404.7 453.238)">
<g id="basket">
<g id="Rectangle-10">
<use xlink:href="#path0_fill" transform="translate(426 -471.141)" fill="#262626"/>
</g>
<g id="Rectangle-3">
<use xlink:href="#path1_fill" transform="translate(430.513 -477.092)" fill="#262626"/>
</g>
</g>
</g>
<defs>
<path id="path0_fill" fill-rule="evenodd" d="M 18.9474 0L 0 0L 0 11.7895C 0 13.9986 1.79086 15.7895 4 15.7895L 14.9474 15.7895C 17.1565 15.7895 18.9474 13.9986 18.9474 11.7895L 18.9474 0ZM 4 14.2895C 2.61929 14.2895 1.5 13.1702 1.5 11.7895L 1.5 1.5L 17.4474 1.5L 17.4474 11.7895C 17.4474 13.1702 16.3281 14.2895 14.9474 14.2895L 4 14.2895Z"/>
<path id="path1_fill" d="M 1.5 11.1525L 1.5 4.96053C 1.5 3.04933 3.04933 1.5 4.96053 1.5C 6.87172 1.5 8.42105 3.04933 8.42105 4.96053L 8.42105 11.1525C 8.42105 11.5667 8.75684 11.9025 9.17105 11.9025C 9.58527 11.9025 9.92105 11.5667 9.92105 11.1525L 9.92105 4.96053C 9.92105 2.2209 7.70015 0 4.96053 0C 2.2209 0 0 2.2209 0 4.96053L 0 11.1525C 0 11.5667 0.335786 11.9025 0.75 11.9025C 1.16421 11.9025 1.5 11.5667 1.5 11.1525Z"/>
</defs>
</svg>

<svg width="18" height="21" xmlns="http://www.w3.org/2000/svg" xmlns:xlink="http://www.w3.org/1999/xlink">
  <path transform="matrix(.95 0 0 .95 .0004 5.6536)" fill="#262626" fill-rule="evenodd" d="M18.9474 0H0v11.7895c0 2.2091 1.7909 4 4 4h10.9474c2.2091 0 4-1.7909 4-4V0zM4 14.2895c-1.3807 0-2.5-1.1193-2.5-2.5V1.5h15.9474v10.2895c0 1.3807-1.1193 2.5-2.5 2.5H4z"/>
  <path transform="matrix(.95 0 0 .95 4.2878 .0001)" fill="#262626" d="M1.5 11.1525v-6.192C1.5 3.0493 3.0493 1.5 4.9605 1.5c1.9112 0 3.4605 1.5493 3.4605 3.4605v6.192a.75.75 0 0 0 1.5 0v-6.192C9.921 2.221 7.7002 0 4.9605 0 2.221 0 0 2.2209 0 4.9605v6.192a.75.75 0 0 0 1.5 0z"/>
</svg>
